src/main/resources/icons/J2EEIcons/icons/javaee_artifact.svg

<svg xmlns="http://www.w3.org/2000/svg" width="16" height="16" viewBox="0 0 16 16">
  <g fill="none" fill-rule="evenodd">
    <path fill="#9AA7B0" d="M12.6000004,14 L12.6000004,15 L15.1000004,15 L15.1000004,14 L13.6000004,14 L13.6000004,13 L14.6000004,13 L14.6000004,12 L13.6000004,12 L13.6000004,11 L15.1000004,11 L15.1000004,10 L12.6000004,10 L12.6000004,11 L12.6000004,12 L12.6000004,13 L12.6000004,14 Z M9,14 L9,15 L11.5,15 L11.5,14 L10,14 L10,13 L11,13 L11,12 L10,12 L10,11 L11.5,11 L11.5,10 L9,10 L9,11 L9,12 L9,13 L9,14 Z M8,9 L16,9 L16,16 L8,16 L8,9 Z"/>
    <path fill="#40B6E0" d="M8.89147394,8 L11.9122,4.8883 L15.0002,7.9303 L14.9325378,8 L8.89147394,8 Z"/>
    <polygon fill="#9AA7B0" points="4.912 4.18 8 7.223 11.088 4.042 8 1"/>
    <polygon fill="#40B6E0" points="1 8.069 4.088 11.111 7.176 7.93 4.088 4.888"/>
    <path fill="#9AA7B0" d="M7,9.80721959 L7,14.0147979 L4.9121,11.958 L7,9.80721959 Z"/>
  </g>
</svg>

<svg xmlns="http://www.w3.org/2000/svg" width="16" height="16" viewBox="0 0 16 16"><rect id="frame" width="16" height="16" fill="none"/><g fill="none" fill-rule="evenodd"><path fill="#9AA7B0" d="M12.6 14v1h2.5v-1h-1.5v-1h1v-1h-1v-1h1.5v-1h-2.5v4zM9 14v1h2.5v-1H10v-1h1v-1h-1v-1h1.5v-1H9v4zM8 9h8v7H8V9z"/><path fill="#40B6E0" d="M8.891 8l3.021-3.112L15 7.93l-.067.07H8.89z"/><path fill="#9AA7B0" d="M4.912 4.18L8 7.223l3.088-3.181L8 1z"/><path fill="#40B6E0" d="M1 8.069l3.088 3.042L7.176 7.93 4.088 4.888z"/><path fill="#9AA7B0" d="M7 9.807v4.208l-2.088-2.057L7 9.808z"/></g></svg>
